svg/u269c.svg

<svg viewBox="0 0 128 128" xmlns="http://www.w3.org/2000/svg">
  <path d="M47.31,31.05c-1.5,3.85-3.17,14.51,1.72,24.42c3.99,8.11,7.36,9.1,8.81,13.94 c0.76,2.53,0.27,13.77-0.34,15.83c-0.61,2.06-3.73,8.2-3.87,17.75c-0.13,8.56,4.69,15.56,6.29,17.46c1.94,2.3,2.66,2.9,4.11,2.9 c0.85,0,4.36-6.66,4.24-7.14c-0.12-0.48-2.54-50.71-2.54-50.71l5.45-37.15L47.31,31.05z" fill="#F79226"/>
  <path d="M65.48,4.88c-3.14-0.09-16.26,16.63-18.17,26.17c-1.91,9.53,1.76,20.21,6.36,26.51 S64.1,68.17,64.22,68.89c0.12,0.73-0.18,54.47-0.18,54.47s0.72,0.09,1.33-0.34c0.51-0.36,2.17-2.09,4.35-5.73 c2.36-3.94,4.59-9.27,4.6-15.2c0-9.94-4.23-15.65-4.47-18.68c-0.24-3.03,0.15-12.57,0.51-14.14c0.96-4.18,8.08-8.13,10.99-15.51 c2.16-5.49,4.72-15.13-1.57-29.05C73.47,10.81,68.09,4.96,65.48,4.88z" fill="#FFC516"/>
  <path d="M63.79,11.31c-1.71,0.31-14.73,14.71-13.23,27.99C51.82,50.4,61,62.03,63.61,61.29 c1.4-0.4,1-12.63,1.12-24.6C64.85,24.08,64.98,11.09,63.79,11.31z" fill="#FFEDA8"/>
  <path d="M79.97,31.55c-1.27-0.29-0.73,8.01-4.2,16.02c-4.03,9.28-9.89,11.82-7.7,13.92 c2.19,2.1,9.19-1.84,11.99-11.12C82.23,43.16,82.25,32.07,79.97,31.55z" fill="#F79226"/>
  <path d="M95.33,86.64c0,0,3.28,0,4.69,3.04c1.66,3.59-0.53,13.92-12.08,13.39 c-11.38-0.52-14.63-12.67-14.63-17.32c0-3,5.79-9.55,5.79-9.55l13.66-13.74l8.14-3.33l21.53,7.35c0,0-12.73,19.9-13.37,19.61 c-0.42-0.2-2.26-0.78-2.39-2.8c-0.17-2.62,1.93-4.55,1.05-9.45c-0.53-2.96-3.94-7.35-11.29-5.69s-12.52,7.56-13.39,14.71 c-1.31,10.77,4.51,11.03,4.51,11.03s5.82,1.31,5.91,1.05C93.54,94.66,95.33,86.64,95.33,86.64z" fill="#F79226"/>
  <path d="M17.2,86.39c0,0,3.33-0.22,3.33-3.37c0-2.72-3.33-11.47,2.45-14.09c5.78-2.63,13.83-0.35,18.82,6.3 c4.39,5.86,3.94,16.98-0.79,18.12s-7.79-1.31-7.79-1.31l-1.66-5.66c0,0-4.98,1.19-4.38,6.8c0.53,4.9,4.41,10.27,12.96,9.89 c9.89-0.44,14.92-11.11,14.44-19.78C54.17,75.67,40.82,64.32,40.4,64.2c-1.58-0.44-19.35-4.73-20.13-3.85S8.98,75.14,8.98,75.14 L17.2,86.39z" fill="#F79226"/>
  <path d="M108.33,85.73c-0.27-0.2,5.57-6.77,4.9-13.92c-0.7-7.53-10.24-11.64-21.8-6.22 c-11.27,5.29-14.2,23.84-6.74,27.22c7.53,3.41,8.93-6.04,10.59-6.22c1.54-0.16,5.75,6.3-0.35,11.03 c-8.48,6.58-21.26-1.91-21.8-13.39c-0.44-9.28,2.19-22.11,17.49-30.04c9.63-4.99,18.72-3.68,24.79-0.51 c4.73,2.47,7.52,6.7,8.4,11.03c1.36,6.67-1.03,12.18-3.15,15.58C116.04,87.75,109.74,86.76,108.33,85.73z" fill="#FFC516"/>
  <path d="M17.64,86.26c-0.56,0.51-5.72,0.44-9.89-4.55c-5.34-6.39-6.41-19.79,2.36-26.35 c10.12-7.56,26.15-5.09,37.29,7.62c8.05,9.19,8.82,19.47,5.25,27.92c-2.24,5.3-6.55,8.97-12.26,9.1c-7.23,0.17-10.42-4.2-10.76-8.08 c-0.25-2.79,0.72-5.34,2.01-5.57c1.99-0.36,1.14,7.97,9.37,7c7.17-0.84,12.08-13.92-0.7-25.04c-12.94-11.25-24.6-4.64-25.82,3.76 C13.14,81.35,18.69,85.3,17.64,86.26z" fill="#FFC516"/>
  <path d="M76.91,75.58c0.73,0.46,2.87-4.08,6.04-7.62c3.76-4.2,7.39-5.97,11.47-8.05 c8.58-4.38,13.92-1.14,14.01-4.64c0.07-2.89-9.72-2.98-17.07,0.96C79.1,62.8,75.94,74.97,76.91,75.58z" fill="#FFEDA8"/>
  <path d="M43.47,78.12c-1.84-0.09-2.98,1.66-2.98,3.59c0,2.1,1.66,3.68,4.29,3.76c2.63,0.09,35.98,0,38.17,0 c2.19,0,3.06-2.01,3.15-3.76c0.09-1.75-1.31-3.24-3.06-3.33S43.47,78.12,43.47,78.12z" fill="#F79226"/>
  <path d="M43.82,81.27c1.75,0,37.47,0.18,38.87,0.09c1.4-0.09,1.93-1.23,1.84-2.01 c-0.09-0.79-1.31-1.05-2.63-1.05c-1.31,0-37.47-0.35-38.43-0.18c-0.96,0.18-1.49,0.88-1.4,1.58C42.15,80.39,42.59,81.27,43.82,81.27 z" fill="#FFEDA8"/>
  <path d="M8.64,71.31c1.32,0.09,3.02-7.79,8.14-11.05c4.37-2.78,8.53-3.11,13.83-2.18s8.04,2.67,8.47,1.85 c0.66-1.26-10.78-9.92-22.76-5.69S6.79,71.18,8.64,71.31z" fill="#FFEDA8"/>
</svg>

<svg viewBox="0 0 128 128" xmlns="http://www.w3.org/2000/svg">
  <defs/>
  <path d="M47.31,31.05 C45.81,34.9 44.14,45.56 49.03,55.47 C53.02,63.58 56.39,64.57 57.84,69.41 C58.6,71.94 58.11,83.18 57.5,85.24 C56.89,87.3 53.77,93.44 53.63,102.99 C53.5,111.55 58.32,118.55 59.92,120.45 C61.86,122.75 62.58,123.35 64.03,123.35 C64.88,123.35 68.39,116.69 68.27,116.21 C68.15,115.73 65.73,65.5 65.73,65.5 L71.18,28.35 L47.31,31.05 Z" fill="#F79226"/>
  <path d="M65.48,4.88 C62.34,4.79 49.22,21.51 47.31,31.05 C45.4,40.58 49.07,51.26 53.67,57.56 C58.27,63.86 64.1,68.17 64.22,68.89 C64.34,69.62 64.04,123.36 64.04,123.36 C64.04,123.36 64.76,123.45 65.37,123.02 C65.88,122.66 67.54,120.93 69.72,117.29 C72.08,113.35 74.31,108.02 74.32,102.09 C74.32,92.15 70.09,86.44 69.85,83.41 C69.61,80.38 70,70.84 70.36,69.27 C71.32,65.09 78.44,61.14 81.35,53.76 C83.51,48.27 86.07,38.63 79.78,24.71 C73.47,10.81 68.09,4.96 65.48,4.88 Z" fill="#FFC516"/>
  <path d="M63.79,11.31 C62.08,11.62 49.06,26.02 50.56,39.3 C51.82,50.4 61,62.03 63.61,61.29 C65.01,60.89 64.61,48.66 64.73,36.69 C64.85,24.08 64.98,11.09 63.79,11.31 Z" fill="#FFEDA8"/>
  <path d="M79.97,31.55 C78.7,31.26 79.24,39.56 75.77,47.57 C71.74,56.85 65.88,59.39 68.07,61.49 C70.26,63.59 77.26,59.65 80.06,50.37 C82.23,43.16 82.25,32.07 79.97,31.55 Z" fill="#F79226"/>
  <path d="M95.33,86.64 C95.33,86.64 98.61,86.64 100.02,89.68 C101.68,93.27 99.49,103.6 87.94,103.07 C76.56,102.55 73.31,90.4 73.31,85.75 C73.31,82.75 79.1,76.2 79.1,76.2 L92.76,62.46 L100.9,59.13 L122.43,66.48 C122.43,66.48 109.7,86.38 109.06,86.09 C108.64,85.89 106.8,85.31 106.67,83.29 C106.5,80.67 108.6,78.74 107.72,73.84 C107.19,70.88 103.78,66.49 96.43,68.15 C89.08,69.81 83.91,75.71 83.04,82.86 C81.73,93.63 87.55,93.89 87.55,93.89 C87.55,93.89 93.37,95.2 93.46,94.94 C93.54,94.66 95.33,86.64 95.33,86.64 Z" fill="#F79226"/>
  <path d="M17.2,86.39 C17.2,86.39 20.53,86.17 20.53,83.02 C20.53,80.3 17.2,71.55 22.98,68.93 C28.76,66.3 36.81,68.58 41.8,75.23 C46.19,81.09 45.74,92.21 41.01,93.35 C36.28,94.49 33.22,92.04 33.22,92.04 L31.56,86.38 C31.56,86.38 26.58,87.57 27.18,93.18 C27.71,98.08 31.59,103.45 40.14,103.07 C50.03,102.63 55.06,91.96 54.58,83.29 C54.17,75.67 40.82,64.32 40.4,64.2 C38.82,63.76 21.05,59.47 20.27,60.35 C19.49,61.23 8.98,75.14 8.98,75.14 L17.2,86.39 Z" fill="#F79226"/>
  <path d="M108.33,85.73 C108.06,85.53 113.9,78.96 113.23,71.81 C112.53,64.28 102.99,60.17 91.43,65.59 C80.16,70.88 77.23,89.43 84.69,92.81 C92.22,96.22 93.62,86.77 95.28,86.59 C96.82,86.43 101.03,92.89 94.93,97.62 C86.45,104.2 73.67,95.71 73.13,84.23 C72.69,74.95 75.32,62.12 90.62,54.19 C100.25,49.2 109.34,50.51 115.41,53.68 C120.14,56.15 122.93,60.38 123.81,64.71 C125.17,71.38 122.78,76.89 120.66,80.29 C116.04,87.75 109.74,86.76 108.33,85.73 Z" fill="#FFC516"/>
  <path d="M17.64,86.26 C17.08,86.77 11.92,86.7 7.75,81.71 C2.41,75.32 1.34,61.92 10.11,55.36 C20.23,47.8 36.26,50.27 47.4,62.98 C55.45,72.17 56.22,82.45 52.65,90.9 C50.41,96.2 46.1,99.87 40.39,100 C33.16,100.17 29.97,95.8 29.63,91.92 C29.38,89.13 30.35,86.58 31.64,86.35 C33.63,85.99 32.78,94.32 41.01,93.35 C48.18,92.51 53.09,79.43 40.31,68.31 C27.37,57.06 15.71,63.67 14.49,72.07 C13.14,81.35 18.69,85.3 17.64,86.26 Z" fill="#FFC516"/>
  <path d="M76.91,75.58 C77.64,76.04 79.78,71.5 82.95,67.96 C86.71,63.76 90.34,61.99 94.42,59.91 C103,55.53 108.34,58.77 108.43,55.27 C108.5,52.38 98.71,52.29 91.36,56.23 C79.1,62.8 75.94,74.97 76.91,75.58 Z" fill="#FFEDA8"/>
  <path d="M43.47,78.12 C41.63,78.03 40.49,79.78 40.49,81.71 C40.49,83.81 42.15,85.39 44.78,85.47 C47.41,85.56 80.76,85.47 82.95,85.47 C85.14,85.47 86.01,83.46 86.1,81.71 C86.19,79.96 84.79,78.47 83.04,78.38 C81.29,78.29 43.47,78.12 43.47,78.12 Z" fill="#F79226"/>
  <path d="M43.82,81.27 C45.57,81.27 81.29,81.45 82.69,81.36 C84.09,81.27 84.62,80.13 84.53,79.35 C84.44,78.56 83.22,78.3 81.9,78.3 C80.59,78.3 44.43,77.95 43.47,78.12 C42.51,78.3 41.98,79 42.07,79.7 C42.15,80.39 42.59,81.27 43.82,81.27 Z" fill="#FFEDA8"/>
  <path d="M8.64,71.31 C9.96,71.4 11.66,63.52 16.78,60.26 C21.15,57.48 25.31,57.15 30.61,58.08 C35.91,59.01 38.65,60.75 39.08,59.93 C39.74,58.67 28.3,50.01 16.32,54.24 C4.34,58.47 6.79,71.18 8.64,71.31 Z" fill="#FFEDA8"/>
</svg>
